svgs/duotone/folder-grid.svg

<svg xmlns="http://www.w3.org/2000/svg" viewBox="0 0 512 512"><!--! Font Awesome Pro 6.3.0 by @fontawesome - https://fontawesome.com License - https://fontawesome.com/license (Commercial License) Copyright 2023 Fonticons, Inc. --><defs><style>.fa-secondary{opacity:.4}</style></defs><path class="fa-primary" d="M160 240H96C87.16 240 80 247.2 80 256v64c0 8.836 7.164 16 16 16h64c8.838 0 16-7.164 16-16V256C176 247.2 168.8 240 160 240zM288 240H224C215.2 240 208 247.2 208 256v64c0 8.836 7.164 16 16 16h64c8.838 0 16-7.164 16-16V256C304 247.2 296.8 240 288 240zM416 240h-64c-8.836 0-16 7.164-16 16v64c0 8.836 7.164 16 16 16h64c8.838 0 16-7.164 16-16V256C432 247.2 424.8 240 416 240z"/><path class="fa-secondary" d="M464 96h-192l-64-64h-160C21.5 32 0 53.5 0 80v352C0 458.5 21.5 480 48 480h416c26.5 0 48-21.5 48-48v-288C512 117.5 490.5 96 464 96zM176 320c0 8.836-7.162 16-16 16H96c-8.836 0-16-7.164-16-16V256c0-8.836 7.164-16 16-16h64c8.838 0 16 7.164 16 16V320zM304 320c0 8.836-7.162 16-16 16H224c-8.836 0-16-7.164-16-16V256c0-8.836 7.164-16 16-16h64c8.838 0 16 7.164 16 16V320zM432 320c0 8.836-7.162 16-16 16h-64c-8.836 0-16-7.164-16-16V256c0-8.836 7.164-16 16-16h64c8.838 0 16 7.164 16 16V320z"/></svg>

<svg xmlns="http://www.w3.org/2000/svg" viewBox="0 0 512 512"><!-- Font Awesome Pro 6.0.0-alpha2 by @fontawesome - https://fontawesome.com License - https://fontawesome.com/license (Commercial License) --><defs><style>.fa-secondary{opacity:.4}</style></defs><path d="M464 96H272L208 32H48C21.5 32 0 53.5 0 80V432C0 458.5 21.5 480 48 480H464C490.5 480 512 458.5 512 432V144C512 117.5 490.5 96 464 96ZM176 320C176 328.836 168.838 336 160 336H96C87.164 336 80 328.836 80 320V256C80 247.164 87.164 240 96 240H160C168.838 240 176 247.164 176 256V320ZM304 320C304 328.836 296.838 336 288 336H224C215.164 336 208 328.836 208 320V256C208 247.164 215.164 240 224 240H288C296.838 240 304 247.164 304 256V320ZM432 320C432 328.836 424.838 336 416 336H352C343.164 336 336 328.836 336 320V256C336 247.164 343.164 240 352 240H416C424.838 240 432 247.164 432 256V320Z" class="fa-secondary"/><path d="M160 240H96C87.164 240 80 247.164 80 256V320C80 328.836 87.164 336 96 336H160C168.838 336 176 328.836 176 320V256C176 247.164 168.838 240 160 240ZM288 240H224C215.164 240 208 247.164 208 256V320C208 328.836 215.164 336 224 336H288C296.838 336 304 328.836 304 320V256C304 247.164 296.838 240 288 240ZM416 240H352C343.164 240 336 247.164 336 256V320C336 328.836 343.164 336 352 336H416C424.838 336 432 328.836 432 320V256C432 247.164 424.838 240 416 240Z" class="fa-primary"/></svg>
